src/images/svg/be-square/list-2.svg

<svg width="56" height="56" viewBox="0 0 56 56" fill="none" xmlns="http://www.w3.org/2000/svg">
<path d="M0 28C0 12.536 12.536 0 28 0C43.464 0 56 12.536 56 28C56 43.464 43.464 56 28 56C12.536 56 0 43.464 0 28Z" fill="#457B9D"/>
<path d="M35.6974 38H19.8894V33.616L26.7694 27.728C27.3881 27.1947 27.9108 26.7147 28.3374 26.288C28.7641 25.84 29.1054 25.4133 29.3614 25.008C29.6388 24.5813 29.8308 24.1653 29.9374 23.76C30.0654 23.3547 30.1294 22.9173 30.1294 22.448V22C30.1294 21.5733 30.0441 21.2 29.8734 20.88C29.7028 20.56 29.4788 20.2933 29.2014 20.08C28.9241 19.8667 28.6041 19.7067 28.2414 19.6C27.9001 19.4933 27.5481 19.44 27.1854 19.44C26.6521 19.44 26.1828 19.5253 25.7774 19.696C25.3934 19.8667 25.0521 20.1013 24.7534 20.4C24.4761 20.6773 24.2414 21.008 24.0494 21.392C23.8574 21.7547 23.7081 22.1493 23.6014 22.576L19.4094 20.976C19.6654 20.208 20.0174 19.4827 20.4654 18.8C20.9134 18.096 21.4681 17.488 22.1294 16.976C22.8121 16.4427 23.6121 16.0267 24.5294 15.728C25.4468 15.4293 26.4814 15.28 27.6334 15.28C28.8494 15.28 29.9268 15.4507 30.8654 15.792C31.8041 16.1333 32.5934 16.6027 33.2334 17.2C33.8948 17.7973 34.3961 18.512 34.7374 19.344C35.0788 20.1547 35.2494 21.04 35.2494 22C35.2494 22.96 35.0894 23.8347 34.7694 24.624C34.4494 25.4133 34.0121 26.16 33.4574 26.864C32.9241 27.5467 32.2948 28.1973 31.5694 28.816C30.8441 29.4347 30.0868 30.064 29.2974 30.704L25.1374 33.968H35.6974V38Z" fill="white"/>
</svg>

<svg xmlns="http://www.w3.org/2000/svg" width="56" height="56" fill="none"  xmlns:v="https://vecta.io/nano"><path d="M0 28C0 12.536 12.536 0 28 0s28 12.536 28 28-12.536 28-28 28S0 43.464 0 28z" fill="#457b9d"/><path d="M35.697 38H19.889v-4.384l6.88-5.888 1.568-1.44c.427-.448.768-.875 1.024-1.28.277-.427.469-.843.576-1.248.128-.405.192-.843.192-1.312V22c0-.427-.085-.8-.256-1.12s-.395-.587-.672-.8a2.9 2.9 0 0 0-.96-.48 3.52 3.52 0 0 0-1.056-.16c-.533 0-1.003.085-1.408.256-.384.171-.725.405-1.024.704a3.78 3.78 0 0 0-.704.992c-.192.363-.341.757-.448 1.184l-4.192-1.6c.256-.768.608-1.493 1.056-2.176.448-.704 1.003-1.312 1.664-1.824.683-.533 1.483-.949 2.4-1.248s1.952-.448 3.104-.448c1.216 0 2.293.171 3.232.512s1.728.811 2.368 1.408c.661.597 1.163 1.312 1.504 2.144.341.811.512 1.696.512 2.656s-.16 1.835-.48 2.624a9.19 9.19 0 0 1-1.312 2.24 13.49 13.49 0 0 1-1.888 1.952l-2.272 1.888-4.16 3.264h10.56V38z" fill="#fff"/></svg>
